X: 1
T: Beach Dancer
T: 8x32J 3C (Eddy West 2003)
T: S&C; chain; cast; reels
P: Sandra's Jig
C: Gerry Robichaud, "Down East Fiddling"
C: arr. T. Traub 8-22-2016
L: 1/8
M: 6/8
R: jig
K: C
g2 f|"C"e2 c G2 c|"C"EGE CEG|"F"FEF AGA|"Dm"A,3 A,DC|"G"B,2 D GBd|"G7"b3 b2 a|"G"g^fg ag=f|"C"e2 e egf||
"C"e2 c G2 c|"C"EGE CEG|"F"FEF AGA|"Dm"A,3 A,DC|"G"B,2 D GBd|"G7"b3 b2 a|"G"gag fed|"C"c3 c||
K: G
|: Bc| "G"d2 B G,B,D|"C"C2 A E2 G|"D"FAd fdf|"G"gbg dBc|d2 B G,B,D|"C"C2 A E2 G|"D"FAd fdf|"G"g3 g :|